packages/icons/svg/Fill/behance.svg

<svg fill="none" height="24" viewBox="0 0 24 24" width="24" xmlns="http://www.w3.org/2000/svg"><path clip-rule="evenodd" d="m9.40526 9.66931c.60504 0 .95904.325.95904.85299 0 .566-.38304.886-1.25104.886h-.853v-1.73899zm5.35924 1.51899c-.626 0-1.038.478-1.038 1.096v.009h2.061v-.009c0-.623-.402-1.096-1.023-1.096zm-5.27775 1.1153h-1.227v1.934h.959c1.02095 0 1.43795-.325 1.43795-.944 0-.614-.413-.99-1.16995-.99zm7.53815.7499h-3.298v.132c0 .732.441 1.196 1.091 1.196.509 0 .868-.236.975-.628h1.184c-.121.774-.791 1.543-2.169 1.543-1.411 0-2.333-.828-2.333-2.306v-.442c0-1.415.926-2.252 2.28-2.252 1.402 0 2.27.896 2.27 2.283zm-3.775-3.35105h3v-.5h-3zm-3.55206 5.50005h-2.723v-6.49999h2.728c1.16996 0 1.93696.606 1.93696 1.60099 0 .79-.475 1.267-1.122 1.424v.056c.786.077 1.457.611 1.457 1.586 0 1.163-.949 1.833-2.27696 1.833zm2.30206-13.20299c-5.52303 0-10.00003 4.478-10.00003 9.99999 0 5.523 4.477 10 10.00003 10 5.523 0 10-4.477 10-10 0-5.52199-4.477-9.99999-10-9.99999z" fill="#6b7280" fill-rule="evenodd"/></svg>

<svg width="24" height="24" viewBox="0 0 24 24" fill="none" xmlns="http://www.w3.org/2000/svg">
<g id="Icon/Fill/behance">
<path id="Mask" fill-rule="evenodd" clip-rule="evenodd" d="M9.4054 9.6695C10.0104 9.6695 10.3644 9.9945 10.3644 10.5225C10.3644 11.0885 9.9814 11.4085 9.1134 11.4085H8.2604V9.6695H9.4054ZM14.7647 11.1885C14.1387 11.1885 13.7267 11.6665 13.7267 12.2845V12.2935H15.7877V12.2845C15.7877 11.6615 15.3857 11.1885 14.7647 11.1885ZM9.4869 12.3037H8.2599V14.2377H9.2189C10.2399 14.2377 10.6569 13.9127 10.6569 13.2937C10.6569 12.6797 10.2439 12.3037 9.4869 12.3037ZM17.025 13.0537H13.727V13.1857C13.727 13.9177 14.168 14.3817 14.818 14.3817C15.327 14.3817 15.686 14.1457 15.793 13.7537H16.977C16.856 14.5277 16.186 15.2967 14.808 15.2967C13.397 15.2967 12.475 14.4687 12.475 12.9907V12.5487C12.475 11.1337 13.401 10.2967 14.755 10.2967C16.157 10.2967 17.025 11.1927 17.025 12.5797V13.0537ZM13.25 9.7027H16.25V9.2027H13.25V9.7027ZM9.698 15.2027H6.975V8.7027H9.703C10.873 8.7027 11.64 9.3087 11.64 10.3037C11.64 11.0937 11.165 11.5707 10.518 11.7277V11.7837C11.304 11.8607 11.975 12.3947 11.975 13.3697C11.975 14.5327 11.026 15.2027 9.698 15.2027ZM12 1.9997C6.477 1.9997 2 6.4777 2 11.9997C2 17.5227 6.477 21.9997 12 21.9997C17.523 21.9997 22 17.5227 22 11.9997C22 6.4777 17.523 1.9997 12 1.9997Z" fill="#000000"/>
</g>
</svg>
